tools/download-figma-icons/icons/outlined-medium/moving-truck.svg

<svg width="24" height="24" viewBox="0 0 24 24" fill="none" xmlns="http://www.w3.org/2000/svg">
<path fill-rule="evenodd" clip-rule="evenodd" d="M22.1415 19.5618C22.3388 19.5618 22.4985 19.402 22.4985 19.2048V16.2663H1.50023V19.2048C1.50023 19.3983 1.66373 19.5618 1.85648 19.5618H3.03321C3.05699 19.471 3.09069 19.3845 3.1243 19.2982C3.13096 19.281 3.13763 19.2639 3.14421 19.2468C3.15069 19.2304 3.15624 19.2137 3.16177 19.1971C3.16841 19.1772 3.17503 19.1573 3.18321 19.138C3.25596 18.9708 3.34221 18.8103 3.44346 18.6595C3.44988 18.6503 3.45716 18.6417 3.46447 18.633C3.47253 18.6235 3.48063 18.6139 3.48771 18.6033C3.57696 18.4788 3.67296 18.361 3.77871 18.2515C3.80843 18.2213 3.83928 18.1937 3.87045 18.1658C3.88333 18.1542 3.89627 18.1426 3.9092 18.1308C3.9962 18.0513 4.08545 17.9748 4.1822 17.9066C4.23013 17.8713 4.27984 17.8395 4.32974 17.8077C4.33606 17.8036 4.34238 17.7996 4.3487 17.7956C4.44545 17.7356 4.5452 17.6823 4.64795 17.6328L4.65953 17.6274C4.71634 17.6007 4.7727 17.5742 4.8317 17.5511C4.94569 17.5061 5.06344 17.4716 5.18269 17.4416C5.2043 17.4362 5.22559 17.4302 5.24684 17.4241C5.28239 17.414 5.31783 17.4039 5.35444 17.3973C5.53519 17.3628 5.71969 17.3411 5.91018 17.3411C6.10068 17.3411 6.28518 17.3628 6.46518 17.3973C6.50209 17.404 6.53778 17.4141 6.57361 17.4242C6.59384 17.4299 6.61411 17.4357 6.63468 17.4408C6.75543 17.4716 6.87317 17.5061 6.98717 17.5511C7.03577 17.5704 7.08254 17.592 7.12963 17.6137C7.14285 17.6198 7.1561 17.626 7.16942 17.6321C7.27217 17.6816 7.37267 17.7356 7.46867 17.7956C7.52567 17.8316 7.58117 17.8668 7.63592 17.9066C7.73117 17.9741 7.81891 18.0498 7.90516 18.1278C7.92118 18.1427 7.93738 18.1573 7.95353 18.1718C7.98278 18.1981 8.01187 18.2243 8.03941 18.2523C8.13841 18.355 8.22766 18.466 8.31091 18.5815C8.32013 18.5942 8.33028 18.6062 8.34044 18.6182C8.35261 18.6326 8.36479 18.647 8.37541 18.6625C8.47366 18.8103 8.55841 18.967 8.63041 19.1305C8.64184 19.1569 8.65069 19.1843 8.65954 19.2117C8.66578 19.231 8.67202 19.2504 8.67916 19.2693C8.68706 19.2901 8.69514 19.3108 8.70322 19.3315C8.73267 19.407 8.76205 19.4823 8.78266 19.5618H15.2116C15.2354 19.4708 15.2693 19.3845 15.303 19.2985C15.3095 19.2818 15.3161 19.265 15.3226 19.2483C15.3293 19.2314 15.3349 19.2139 15.3406 19.1964C15.3471 19.1764 15.3536 19.1564 15.3616 19.1373C15.4343 18.97 15.5206 18.8103 15.6218 18.6595C15.6283 18.6501 15.6357 18.6414 15.6431 18.6326C15.6505 18.6239 15.6579 18.6152 15.6646 18.6055C15.7531 18.4795 15.8506 18.361 15.9571 18.2508C15.9857 18.2212 16.0161 18.1941 16.0466 18.1671C16.0593 18.1558 16.072 18.1445 16.0846 18.133C16.1723 18.052 16.2631 17.9748 16.3598 17.9058C16.4138 17.8668 16.4686 17.8316 16.5248 17.7963C16.6216 17.7363 16.7221 17.6823 16.8263 17.6321C16.8369 17.6272 16.8474 17.6223 16.858 17.6174C16.9073 17.5944 16.9565 17.5714 17.0078 17.5511C17.1211 17.5061 17.2388 17.4716 17.3596 17.4408C17.3831 17.4353 17.406 17.4288 17.4288 17.4223C17.4621 17.4129 17.4951 17.4035 17.5298 17.3973C17.7098 17.3628 17.8943 17.3411 18.0848 17.3411C18.2753 17.3411 18.4598 17.3628 18.6406 17.3973C18.6758 17.4036 18.7097 17.4132 18.7435 17.4228C18.7658 17.4291 18.7881 17.4354 18.8108 17.4408C18.9308 17.4716 19.0493 17.5061 19.1641 17.5511C19.2188 17.5728 19.2713 17.5975 19.3245 17.6226C19.3317 17.626 19.339 17.6294 19.3463 17.6328C19.4498 17.6823 19.5488 17.7356 19.6455 17.7956L19.6532 17.8004C19.7076 17.8347 19.7612 17.8686 19.8128 17.9066C19.908 17.9748 19.9973 18.0498 20.0835 18.1285C20.097 18.1409 20.1105 18.153 20.124 18.165C20.1556 18.1932 20.1869 18.2211 20.2163 18.2515C20.3175 18.3558 20.4083 18.4683 20.493 18.586C20.5009 18.5967 20.5093 18.6067 20.5177 18.6166C20.5299 18.6313 20.542 18.6457 20.5523 18.6618C20.652 18.8095 20.7368 18.967 20.8088 19.1313C20.8194 19.1559 20.8279 19.1813 20.8363 19.2066C20.8428 19.2261 20.8493 19.2456 20.8568 19.2648C20.865 19.2867 20.8733 19.3085 20.8817 19.3302C20.9109 19.4062 20.94 19.4819 20.961 19.5618H22.1415ZM16.6141 20.314C16.6141 21.1263 17.274 21.7848 18.0848 21.7848C18.897 21.7848 19.5585 21.1263 19.5585 20.3148V20.314C19.5563 19.5018 18.8948 18.8411 18.0848 18.8411C17.2763 18.8411 16.6163 19.5018 16.6141 20.314ZM4.43568 20.314C4.43568 21.1263 5.09718 21.7848 5.91017 21.7848C6.72091 21.7848 7.38015 21.1263 7.38015 20.3148V20.314C7.3779 19.5018 6.71791 18.8411 5.91017 18.8411C5.09943 18.8411 4.43793 19.5018 4.43568 20.314ZM19.0125 6.28917H15.5161V14.7663H22.5V11.7026C22.5 11.5856 22.4423 11.4754 22.3448 11.4079L21.4733 10.8056C21.183 10.6054 20.9565 10.3271 20.8185 10.0024L19.3395 6.50592C19.284 6.37467 19.1558 6.28917 19.0125 6.28917ZM1.85574 2.25047C1.66074 2.25047 1.50174 2.40871 1.50174 2.60446V14.7656H14.0161V2.60446C14.0161 2.40871 13.8579 2.25047 13.6621 2.25047H1.85574ZM23.1983 10.1749C23.7008 10.5221 24 11.0936 24 11.7026V15.5156C24 15.5171 23.9996 15.5182 23.9993 15.5193C23.9989 15.5205 23.9985 15.5216 23.9985 15.5231V19.2048C23.9985 20.2285 23.166 21.0618 22.1415 21.0618H20.9513C20.6175 22.3368 19.4648 23.2848 18.0848 23.2848C16.7063 23.2848 15.5543 22.3368 15.2213 21.0618H8.7729C8.43991 22.3368 7.28867 23.2848 5.91018 23.2848C4.52945 23.2848 3.37671 22.3368 3.04296 21.0618H1.85648C0.832736 21.0618 0.000244138 20.2285 0.000244138 19.2048V14.7663H0.00174412V2.60446C0.00174412 1.58222 0.832736 0.750481 1.85573 0.750481H13.6621C14.6843 0.750481 15.5161 1.58222 15.5161 2.60446V4.78919H19.0126C19.7603 4.78919 20.4308 5.23394 20.721 5.92243L22.2 9.41739C22.2263 9.47964 22.2698 9.53289 22.326 9.57114L23.1983 10.1749ZM5.37334 11.4434H9.7743V7.51347L7.57307 5.31225L5.37334 7.51347V11.4434ZM7.04281 3.7215C7.32406 3.44026 7.82205 3.44026 8.1033 3.7215L12.5463 8.16446C12.8395 8.4577 12.8395 8.9317 12.5463 9.22495C12.4 9.37119 12.208 9.44469 12.016 9.44469C11.824 9.44469 11.6328 9.37119 11.4858 9.22495L11.2743 9.01345V12.1934C11.2743 12.6082 10.939 12.9434 10.5243 12.9434H4.62334C4.20859 12.9434 3.87334 12.6082 3.87334 12.1934V9.01345L3.66185 9.22495C3.3686 9.51819 2.89385 9.51819 2.60136 9.22495C2.30811 8.9317 2.30811 8.4577 2.60136 8.16446L7.04281 3.7215Z" fill="black"/>
</svg>

<svg width="24" height="24" viewBox="0 0 24 24" fill="none" xmlns="http://www.w3.org/2000/svg"><path fill-rule="evenodd" clip-rule="evenodd" d="M22.142 19.562c.197 0 .357-.16.357-.357v-2.939H1.5v2.939c0 .193.164.357.356.357h1.177c.024-.091.058-.178.091-.264l.02-.051.018-.05a.59.59 0 0 1 .021-.059c.073-.167.16-.328.26-.479l.021-.026a3.123 3.123 0 0 1 .314-.381c.03-.03.061-.058.092-.086l.04-.035a2.79 2.79 0 0 1 .42-.323l.019-.012c.096-.06.196-.114.299-.163l.012-.006c.056-.026.113-.053.172-.076a2.84 2.84 0 0 1 .35-.11c.022-.005.044-.01.065-.017.035-.01.07-.02.107-.027.181-.034.366-.056.556-.056.19 0 .375.022.555.056.037.007.073.017.109.027l.06.017c.121.03.24.065.353.11.049.02.096.041.143.063l.04.018a3.115 3.115 0 0 1 .466.275 2.93 2.93 0 0 1 .318.265c.029.026.058.052.085.08.1.103.189.214.272.33l.03.036c.012.015.024.029.034.045.099.147.183.304.255.468.012.026.02.053.03.08a7.27 7.27 0 0 0 .044.12c.029.076.058.151.079.23h6.429c.023-.09.057-.177.091-.262l.02-.05.018-.053a.765.765 0 0 1 .02-.059c.073-.167.16-.327.26-.477l.022-.027.022-.027c.088-.127.186-.245.292-.355.029-.03.06-.057.09-.084l.038-.034a2.836 2.836 0 0 1 .741-.5l.032-.016c.05-.023.098-.046.15-.066a2.872 2.872 0 0 1 .42-.129c.034-.01.067-.018.102-.025.18-.034.364-.056.555-.056.19 0 .375.022.556.056.035.007.069.016.103.026l.067.018c.12.03.238.065.353.11a2.767 2.767 0 0 1 .182.082c.104.05.203.103.3.163l.007.004a2.646 2.646 0 0 1 .43.328l.041.037c.032.028.063.056.092.087.101.104.192.216.277.334l.025.03c.012.015.024.03.034.046.1.148.185.305.257.47.01.024.019.05.027.075l.02.058.026.065c.029.076.058.152.079.232h1.18Zm-5.528.752a1.472 1.472 0 0 0 2.944 0 1.478 1.478 0 0 0-1.473-1.473c-.809 0-1.469.66-1.47 1.473Zm-12.178 0a1.47 1.47 0 0 0 2.944 0 1.476 1.476 0 0 0-1.47-1.473c-.81 0-1.472.66-1.474 1.473ZM19.012 6.289h-3.496v8.477H22.5v-3.063a.359.359 0 0 0-.155-.295l-.872-.602a1.85 1.85 0 0 1-.654-.804l-1.48-3.496a.355.355 0 0 0-.326-.217ZM1.857 2.25a.354.354 0 0 0-.354.354v12.162h12.514V2.604a.354.354 0 0 0-.354-.354H1.856Zm21.342 7.925c.503.347.802.919.802 1.528v3.816l-.002.004v3.682a1.859 1.859 0 0 1-1.857 1.857h-1.19a2.97 2.97 0 0 1-2.866 2.223 2.966 2.966 0 0 1-2.864-2.223H8.773a2.966 2.966 0 0 1-2.863 2.223 2.97 2.97 0 0 1-2.867-2.223H1.856A1.859 1.859 0 0 1 0 19.205v-4.439h.002V2.604C.002 1.582.832.75 1.856.75h11.806c1.022 0 1.854.832 1.854 1.854V4.79h3.497a1.85 1.85 0 0 1 1.708 1.133L22.2 9.417a.35.35 0 0 0 .126.154l.872.604ZM5.373 11.443h4.401v-3.93l-2.2-2.2-2.2 2.2v3.93Zm1.67-7.721a.772.772 0 0 1 1.06 0l4.443 4.442a.75.75 0 1 1-1.06 1.061l-.212-.212v3.18a.75.75 0 0 1-.75.75h-5.9a.75.75 0 0 1-.75-.75v-3.18l-.212.212a.75.75 0 1 1-1.06-1.06l4.44-4.443Z" fill="currentColor"/></svg>
